tools/download-figma-icons/icons/action/calculator.svg

<svg width="24" height="24" viewBox="0 0 24 24" fill="none" xmlns="http://www.w3.org/2000/svg">
<path fill-rule="evenodd" clip-rule="evenodd" d="M4 22H20V2H4V22ZM20.403 0H3.597C2.716 0 2 0.716 2 1.597V22.403C2 23.284 2.716 24 3.597 24H20.403C21.284 24 22 23.284 22 22.403V1.597C22 0.716 21.284 0 20.403 0ZM8 7.733H16V6H8V7.733ZM7 9.733H17C17.553 9.733 18 9.286 18 8.733V5C18 4.448 17.553 4 17 4H7C6.447 4 6 4.448 6 5V8.733C6 9.286 6.447 9.733 7 9.733ZM8 13.9956H7C6.447 13.9956 6 13.5476 6 12.9956C6 12.4436 6.447 11.9956 7 11.9956H8C8.553 11.9956 9 12.4436 9 12.9956C9 13.5476 8.553 13.9956 8 13.9956ZM17 11.9956H16C15.447 11.9956 15 12.4436 15 12.9956C15 13.5476 15.447 13.9956 16 13.9956H17C17.553 13.9956 18 13.5476 18 12.9956C18 12.4436 17.553 11.9956 17 11.9956ZM11.5 11.9956H12.5C13.053 11.9956 13.5 12.4436 13.5 12.9956C13.5 13.5476 13.053 13.9956 12.5 13.9956H11.5C10.947 13.9956 10.5 13.5476 10.5 12.9956C10.5 12.4436 10.947 11.9956 11.5 11.9956ZM7 16.9956H8C8.553 16.9956 9 16.5476 9 15.9956C9 15.4436 8.553 14.9956 8 14.9956H7C6.447 14.9956 6 15.4436 6 15.9956C6 16.5476 6.447 16.9956 7 16.9956ZM16 14.9956H17C17.553 14.9956 18 15.4436 18 15.9956C18 16.5476 17.553 16.9956 17 16.9956H16C15.447 16.9956 15 16.5476 15 15.9956C15 15.4436 15.447 14.9956 16 14.9956ZM12.5 14.9956H11.5C10.947 14.9956 10.5 15.4436 10.5 15.9956C10.5 16.5476 10.947 16.9956 11.5 16.9956H12.5C13.053 16.9956 13.5 16.5476 13.5 15.9956C13.5 15.4436 13.053 14.9956 12.5 14.9956ZM8 19.9956H7C6.447 19.9956 6 19.5476 6 18.9956C6 18.4436 6.447 17.9956 7 17.9956H8C8.553 17.9956 9 18.4436 9 18.9956C9 19.5476 8.553 19.9956 8 19.9956ZM17 17.9956H16C15.447 17.9956 15 18.4436 15 18.9956C15 19.5476 15.447 19.9956 16 19.9956H17C17.553 19.9956 18 19.5476 18 18.9956C18 18.4436 17.553 17.9956 17 17.9956ZM11.5 17.9956H12.5C13.053 17.9956 13.5 18.4436 13.5 18.9956C13.5 19.5476 13.053 19.9956 12.5 19.9956H11.5C10.947 19.9956 10.5 19.5476 10.5 18.9956C10.5 18.4436 10.947 17.9956 11.5 17.9956Z" fill="black"/>
</svg>

<svg xmlns="http://www.w3.org/2000/svg" width="24" height="24" fill="none" viewBox="0 0 24 24"><path fill="currentColor" fill-rule="evenodd" d="M4 22h16V2H4zM20.403 0H3.597C2.716 0 2 .716 2 1.597v20.806C2 23.284 2.716 24 3.597 24h16.806c.881 0 1.597-.716 1.597-1.597V1.597C22 .716 21.284 0 20.403 0M8 7.733h8V6H8zm-1 2h10a1 1 0 0 0 1-1V5a1 1 0 0 0-1-1H7a1 1 0 0 0-1 1v3.733a1 1 0 0 0 1 1m1 4.263H7a1 1 0 1 1 0-2h1a1 1 0 1 1 0 2m9-2h-1a1 1 0 1 0 0 2h1a1 1 0 1 0 0-2m-5.5 0h1a1 1 0 1 1 0 2h-1a1 1 0 1 1 0-2m-4.5 5h1a1 1 0 1 0 0-2H7a1 1 0 1 0 0 2m9-2h1a1 1 0 1 1 0 2h-1a1 1 0 1 1 0-2m-3.5 0h-1a1 1 0 1 0 0 2h1a1 1 0 1 0 0-2m-4.5 5H7a1 1 0 1 1 0-2h1a1 1 0 1 1 0 2m9-2h-1a1 1 0 1 0 0 2h1a1 1 0 1 0 0-2m-5.5 0h1a1 1 0 1 1 0 2h-1a1 1 0 1 1 0-2" clip-rule="evenodd"/></svg>
